!!!!SEGMENT: pl-sa--551-a-ix-31--002_kosciuszko-tadeusz--polonez-kosciuszki.krn
!!!cenid: 18xx:501
!!!COM: Kościuszko, Tadeusz
!!!COM-rismID: pe30014456
!!!CDT: 1746/02/04-1817/10/15
!!!CNT: Polish-Lithuanian
!!!OTL: Polonez Kościuszki
!!!PDT:
!!!AGN: Secular; Polonaise
!!!SMS-siglum: PL-SA
!!!SMS-shelfmark: 551/A IX 31
!!!SMS-shelfwork: 002 W
!!!SMS-variant:
!!!SMS-altvar:
!!!NIFC-rismSourceID: 1001069377
!!!NIFC-rismChildID: 1001069377
!!!NIFC-islandoraID: none
!!!URL-pdf-islandora:
!!!URL-scan: https://bc.bdsandomierz.pl/dlibra/publication/1307/edition/1275/content @EN{Scan in the Sandomierz Diocese Digital Library} @PL{Skany w portalu Cyfrowa Biblioteka Diecezjalna w Sandomierzu}
!!!ONB-nifc: Str. 2 (s. 4) – str. 3
!!!AIN: 1 piano
!!!key:
**kern	**kern	**dynam
*part1	*part1	*part1
*staff2	*staff1	*
*Ipiano	*Iempty	*
*I"Piano	*	*
*I'P-no	*	*
*clefF4	*clefG2	*
*k[b-e-]	*k[e-b-]	*
*B-:	*B-:	*
*M3/4	*M3/4	*
*>[A,B,A,B,C,A,D,E,D]	*>[A,B,A,B,C,A,D,E,D]	*
=1	=1	=1
*>A	*>A	*
!	!LO:TX:a:t=Polonez Kościuszki	!
8B-L 8BB-\	8bb-L 8ff 8dd\	.
16BB-\L	16b-\L	.
16D\JJ	16dd\JJ	.
8F\L	8ff\L	.
8F\	8ff\	.
8D\	8dd\	.
8BB-\J	8b-\J	.
=2	=2	=2
8.G\L	8.gg\L	.
16E-\Jk	16ee-\Jk	.
!LO:TX:a:t=P:problem=mixed beam	!	!
8C/L	16cc\LL	.
.	16ee-\	.
8e-J 8c 8F\	16a\	.
.	16cc\JJ	.
4d 4B-\	4b-\	.
=3	=3	=3
*tremolo	*	*
!LO:TX:a:t=P:problem=złe wyświetlanie wartości rytmicznej tremolo	!	!
!LO:N:TREM:vis=2	!	!
8B-\L	8.ddL 8.b-\	p
8f\	.	.
.	16ddJk 16b-\	.
8B-\	4dd 4b-\	.
8f\	.	.
8B-\	8ryy	.
8f\J	16ccLL 16a\	.
.	16ddJJ 16b-\	.
=4	=4	=4
8A\L	8.ffL 8.dd\	.
8f\	.	.
.	16ee-Jk 16cc\	.
8A\	4.ee- 4.cc\	.
8f\J	.	.
8B-\L	.	.
8f\J	8dd 8b-\	.
=5	=5	=5
!LO:TX:a:t=P:problem=złe wyświetlanie wartości rytmicznej tremolo	!	!
!LO:N:TREM:vis=2	!	!
8F\L	8ccL 8a\	.
8f\	8ccJ 8a\	.
8F\	4cc 4a\	.
8f\	.	.
8F\	8ryy	.
8f\J	16ddLL 16b-\	.
.	16ee-JJ 16cc\	.
=6	=6	=6
8B-\L	8.ffL 8.dd\	.
8f\J	.	.
.	16ggJk 16ee-\	.
8F\L	8ffL 8dd\	.
8f\	8ee- 8cc\	.
8f\	8dd 8b-\	.
!LO:TX:a:t=[segno]:problem=znak segno na kresce taktowej	!LO:TX:a:t=[segno]:problem=znak segno na kresce taktowej	!
8f\J	8ccJ 8a\	.
!!LO:PB:g=original
=7	=7	=7
*>B	*>B	*
16BB-\LL	4b-\	.
16F\	.	.
16D\	.	.
16F\JJ	.	.
*rep	*	*
16BB-\LL	8dd\	.
16F\	.	.
16D\	16cc\LL	.
16F\JJ	16dd\JJ	.
*Xrep	*	*
*rep	*	*
16BB-\LL	16ee-\LL	.
16F\	16dd\	.
16D\	16cc\	.
16F\JJ	16dd\JJ	.
*Xrep	*	*
=8	=8	=8
16AA\LL	16ee-\LL	.
16F\	16dd\	.
16E-\	16ee-\	.
16F\JJ	16ff\JJ	.
*rep	*	*
16AA\LL	16ee-\LL	.
16F\	16dd\	.
16E-\	16ee-\	.
16F\JJ	16ff\JJ	.
*Xrep	*	*
*rep	*	*
16AA\LL	16ee-\LL	.
16F\	16dd\	.
16E-\	16cc\	.
16F\JJ	16b-\JJ	.
*Xrep	*	*
=9	=9	=9
16FF\LL	8a\	.
16F\	.	.
16E-\	4cc 4a\	.
16F\JJ	.	.
*rep	*	*
16FF\LL	.	.
16F\	.	.
16E-\	4ee- 4cc\	.
16F\JJ	.	.
*Xrep	*	*
*rep	*	*
16FF\LL	.	.
16F\	.	.
16E-\	8gg 8ee-\	.
16F\JJ	.	.
*Xrep	*	*
=10	=10	=10
8BB-/	16ffLL 16dd\	.
.	16ee- 16cc\	.
4d 4F\	16dd 16b-\	.
.	16ccJJ 16a\	.
.	4cc 4a\	.
8e- 8F\	.	.
8d 8B-\	8b-\	.
=11:|!	=11:|!	=11:|!
*>C	*>C	*
8F\L	8.ccL 8.a\	p
8d\J	.	.
.	16ccJk 16a\	.
*tremolo	*	*
8d\L	4.cc 4.a\	.
8d\	.	.
8d\	.	.
8d\J	8dd 8b-\	.
!!LO:LB:g=original
=12	=12	=12
*rep	*	*
8F\L	8ee-L 8cc\	.
8d\J	8ddJ 8b-\	.
8d\L	8ee-XL 8cc\	.
8d\	8cc 8a\	.
8d\	8dd 8b-\	.
8d\J	8ee-J 8cc\	.
*Xrep	*	*
=13	=13	=13
8B-\L	8.ddL 8.b-\	.
8f\J	.	.
.	16ddJk 16b-\	.
8f\L	4.dd 4.b-\	.
8f\	.	.
8f\	.	.
8f\J	8ee- 8cc\	.
*Xtremolo	*	*
=14	=14	=14
8B-\L	8ggL 8ee-\	.
8f\J	8ffJ 8dd\	.
8F\L	8ffL 8dd\	.
8f\	8ee- 8cc\	.
8f\	8dd 8b-\	.
!LO:TX:a:t=[segno]:problem=znak segno na kresce taktowej	!LO:TX:a:t=[segno]:problem=znak segno na kresce taktowej	!
8f\J	8ccJ 8a\	.
=15||	=15||	=15||
*>D	*>D	*
*clefF4	*clefG2	*
*k[e-b-]	*k[e-b-]	*
*M3/4	*M3/4	*
!	!LO:TX:b:t=Trio	!
4d\	8ff\L	.
.	16een\L	.
.	16ff\JJ	.
8e-\L	8gg\L	.
8c\	8ee-X\	.
8A\	8cc\	.
8F\J	8a\J	.
=17	=17	=17
4B- 4D\	4b- 4f 4d\	.
4c 4F\	4b- 4f 4d\	.
4d 4B-\	4dd 4b- 4f\	.
!!LO:LB:g=original
=18	=18	=18
4B-\	8ff\L	p
.	32gg\LL	.
.	32ff\	.
.	32een\	.
.	32ff\JJJ	.
8e-\L	8gg\L	.
8c\	8ee-X\	.
8A\	8cc\	.
8F\J	8a\J	.
=19	=19	=19
4B- 4D\	8.b-L 8.f\	.
.	16dd\Jk	.
4e- 4c 4F\	8.cc\L	.
.	16a\Jk	.
!	!LO:TX:b:t=Fine	!
8d 8B-\	8b- 8f\	.
=20||	=20||	=20||
*>E	*>E	*
16e-LL 16c\	8ff\	.
16f\	.	.
16F\	8gg\	.
16f\JJ	.	.
*rep	*	*
16e-LL 16c\	8ryy	.
16f\	.	.
16F\	16aa\LL	.
16f\JJ	16gg\JJ	.
*Xrep	*	*
*rep	*	*
16e-LL 16c\	16gg\LL	.
16f\	16ff\	.
16F\	16gg\	.
16f\JJ	16gg\JJ	.
*Xrep	*	*
=21	=21	=21
16dLL 16B-\	8.gg\L	.
16f\	.	.
16F\	.	.
16f\JJ	16ee-\Jk	.
*rep	*	*
16dLL 16B-\	16een\LL	.
16f\	16ff\	.
16F\	16gg\	.
16f\JJ	16ff\JJ	.
*Xrep	*	*
*rep	*	*
16dLL 16B-\	16ee-X\LL	.
16f\	16dd\	.
16F\	16cc\	.
16f\JJ	16b-\JJ	.
*Xrep	*	*
!!LO:LB:g=original
=22	=22	=22
16e-LL 16c\	8a\	.
16f\	.	.
16F\	4aa\	.
16f\JJ	.	.
*rep	*	*
16e-LL 16c\	.	.
16f\	.	.
16F\	16aa\LL	.
16f\JJ	16gg\JJ	.
*Xrep	*	*
*rep	*	*
16e-LL 16c\	16aa\LL	.
16f\	16ff\	.
16F\	16gg\	.
16f\JJ	16aa\JJ	.
*Xrep	*	*
=23	=23	=23
16dLL 16B-\	16bb-\LL	.
16f\	16ff\	.
16F\	16gg\	.
16f\JJ	16ff\JJ	.
*rep	*	*
16dLL 16B-\	16ee-\LL	.
16f\	16dd\	.
16F\	16cc\	.
16f\JJ	16b-\JJ	.
*Xrep	*	*
!	!LO:TX:b:t=D. C. Segno	!
4c 4F\	4ff 4a\	.
==||	==||	==||
*-	*-	*-
!!!system-decoration: {s1,s2}
!!!ENC: Marta Lawrence
!!!END: 2020-12-04
!!!ENC: Kamil Watkowski
!!!END: 2020-06-19
!!!YEC: Copyright 2022 Narodowy Instytut Fryderyka Chopina (https://polishscores.org)
!!!YEM: License CC-BY-4.0 (https://creativecommons.org/licenses/by/4.0)
